Sources/FrostedUI/Resources/Icons.xcassets/leaf16.imageset/leaf-16.svg

<svg width="16" height="16" viewBox="0 0 16 16" fill="none" xmlns="http://www.w3.org/2000/svg" data-fui-icon="true">
  <path
    fill-rule="evenodd"
    clip-rule="evenodd"
    d="M13.8651 1.26219C14.1074 1.21786 14.3561 1.2954 14.5303 1.46962C14.7046 1.64384 14.7821 1.89253 14.7378 2.13489L14.7364 2.14215L14.7328 2.16164L14.7189 2.23592C14.7067 2.30067 14.6886 2.39527 14.6649 2.516C14.6176 2.75743 14.5481 3.10358 14.4586 3.52466C14.2798 4.36606 14.0206 5.51026 13.6997 6.7177C13.3796 7.92239 12.9943 9.20436 12.5612 10.3161C12.1404 11.3964 11.634 12.4266 11.0303 13.0303C8.98422 15.0764 5.76946 15.2417 3.53458 13.526L2.53033 14.5303C2.23744 14.8232 1.76256 14.8232 1.46967 14.5303C1.17678 14.2374 1.17678 13.7625 1.46967 13.4696L2.47392 12.4654C0.758309 10.2305 0.923562 7.01573 2.96968 4.96961C3.57338 4.36591 4.60354 3.85956 5.6839 3.43873C6.7956 3.0057 8.07757 2.62037 9.28226 2.30023C10.4897 1.97936 11.6339 1.7202 12.4753 1.54138C12.8964 1.45189 13.2425 1.38233 13.484 1.33504C13.6047 1.31139 13.6993 1.29331 13.764 1.28107L13.8383 1.26713L13.8578 1.26352L13.8651 1.26219ZM9.96969 11.9696C8.5106 13.4287 6.24499 13.5897 4.60788 12.4527L6.81066 10.2499H9.5C9.91421 10.2499 10.25 9.91415 10.25 9.49994C10.25 9.08573 9.91421 8.74994 9.5 8.74994H8.31066L11.5303 5.53027C11.8232 5.23738 11.8232 4.7625 11.5303 4.46961C11.2374 4.17672 10.7626 4.17672 10.4697 4.46961L8.75 6.18928V5.89203C8.75 5.47782 8.41421 5.14203 8 5.14203C7.58579 5.14203 7.25 5.47782 7.25 5.89203V7.68928L5.71254 9.22674L5.74965 8.02306C5.76241 7.60904 5.43713 7.26307 5.02312 7.2503C4.6091 7.23754 4.26313 7.56282 4.25036 7.97684L4.16409 10.7752L3.54722 11.3921C2.41022 9.75495 2.57126 7.48935 4.03034 6.03027C4.39314 5.66747 5.15873 5.25308 6.22834 4.83644C7.26661 4.43201 8.48882 4.06315 9.66751 3.74991C10.8434 3.43741 11.9618 3.18401 12.7871 3.00861C12.877 2.98952 12.9633 2.97136 13.0458 2.95415C13.0286 3.03666 13.0104 3.12299 12.9913 3.21284C12.8159 4.03815 12.5625 5.15652 12.25 6.33245C11.9368 7.51114 11.568 8.73335 11.1635 9.77162C10.7469 10.8412 10.3325 11.6068 9.96969 11.9696Z"
    fill="currentColor"
  />
</svg>

<svg xmlns="http://www.w3.org/2000/svg" width="16" height="16" fill="none" data-fui-icon="true" viewBox="0 0 16 16"><path fill="currentColor" fill-rule="evenodd" d="M13.865 1.262a.75.75 0 0 1 .873.873l-.002.007-.003.02-.014.074-.054.28a66.457 66.457 0 0 1-.965 4.202c-.32 1.204-.706 2.486-1.139 3.598-.42 1.08-.927 2.11-1.53 2.714a5.7 5.7 0 0 1-7.496.496L2.53 14.53a.75.75 0 1 1-1.06-1.06l1.004-1.005A5.7 5.7 0 0 1 2.97 4.97c.603-.604 1.634-1.11 2.714-1.531C6.796 3.006 8.078 2.62 9.282 2.3a67 67 0 0 1 4.482-1.019l.074-.014.02-.003zM9.97 11.97a4.2 4.2 0 0 1-5.362.483L6.81 10.25H9.5a.75.75 0 1 0 0-1.5H8.31l3.22-3.22a.75.75 0 0 0-1.06-1.06L8.75 6.19v-.298a.75.75 0 0 0-1.5 0v1.797L5.713 9.227l.037-1.204a.75.75 0 0 0-1.5-.046l-.086 2.798-.617.617A4.2 4.2 0 0 1 4.03 6.03c.363-.363 1.129-.777 2.198-1.194 1.039-.404 2.26-.773 3.44-1.086a65 65 0 0 1 3.378-.796 67 67 0 0 1-.796 3.378c-.313 1.18-.682 2.401-1.086 3.44-.417 1.07-.832 1.835-1.194 2.198" clip-rule="evenodd"/></svg>
